X:16
T: Hanter Dro
M: 3/4
L: 1/16
R: Hanter Dro
K: G
G2GA B2AG A4  |d2dc B2A2 d2d2|G2GA B2AG A4  |d2dc B2A2 G4  :|
G2GA B2d2 A4  |G2GA B2d2 A4  |d2dc B2e2 d2d2||:G2GA B2AG A4
|d2dc B2A2 G4  :|
